X:1
T: Laddie with the Plaidie
C: trad/Cape Breton/Jerry Holland Colln.
C: arr. T. Traub 4-26-04
R: strathspey, shottish
M: 4/4
K: D
L: 1/8
|: e|"D"f>gf>e "G"d>ed>B|"D"A>FA>d "A"c<e e2|"D"f>gf>e "G"d>ed>B |"A"c>de>a "D"f<d d :|
|: B|"D"A2 F/E/D F<AA>d|"G"B>AB>d "A"c<ee>f|"D"A2 F/E/D F<AA>d|"A"c>de>a "D"f<d d :|
|: G|"D"F<AD>A F/G/A d>G|"D"F<AD>F "A7"G<EE>G|"D"F/G/A D>A F/G/A d>F|"A7"G/F/E A>G "D"F<D D :|
|: f|"D"a>fd>f "G"g>fe>d|"Em"g>e "D"f/e/d "A"c<e (3efg|"D"a>fd>f "G"g>fe>d|"A"(3fga (3efg "D"f<d d :|
z|"D"f2 (3agf "A"e2 (3gfe|"Bm"d2 (3fed "A"c2 (3edc|"G"B>c (3dcB "D"A>df>a|"Em"g>fe>d "A"c<aa>g|
"D"(3fef (3agf "A"(3e^de (3gfe|"Bm"(3dcd (3fed "F#m"(3cBc (3edc|"G"B>c (3dcB "D"A>df>a|"A7"g>fe>a "D"f<d d2 |]
